usr/share/icons/biglinux-icons-material-dark/16/actions/edit-select-invert.svg

<svg xmlns="http://www.w3.org/2000/svg" viewBox="0 0 16 16">
  <defs id="defs3051">
    <style type="text/css" id="current-color-scheme">
      .ColorScheme-Text {
        color:#dedede;
      }
      </style>
  </defs>
 <path style="fill:currentColor;fill-opacity:1;stroke:none" 
     d="M 2 2 L 2 14 L 5.15625 10.84375 C 4.43239 10.11989 4 9.10457 4 8 C 4 5.79086 5.79086 4 8 4 C 9.10457 4 10.11989 4.43239 10.84375 5.15625 L 14 2 L 2 2 z M 10.84375 5.15625 L 5.15625 10.84375 C 5.88011 11.56761 6.89543 12 8 12 C 10.20914 12 12 10.20914 12 8 C 12 6.89543 11.56761 5.88011 10.84375 5.15625 z "
     class="ColorScheme-Text"
     />
</svg>

<svg xmlns="http://www.w3.org/2000/svg" viewBox="0 0 16 16">
<defs id="defs3051">
<style id="current-color-scheme" type="text/css">
.ColorScheme-Text{color:#dedede}
</style>
</defs>
<path d="M2 2v12l3.156-3.156A4 4 0 0 1 4 8a4 4 0 0 1 4-4 4 4 0 0 1 2.844 1.156L14 2zm8.844 3.156-5.688 5.688A4 4 0 0 0 8 12a4 4 0 0 0 4-4 4 4 0 0 0-1.156-2.844" class="ColorScheme-Text" style="fill:currentColor;fill-opacity:1;stroke:none"/>
</svg>
